X: 42703
T: Whistler, The
R: polka
M: 2/4
K: Gmajor
d/e/d/B/ GB/c/|d/e/d/B/ GB/d/|gf/g/ ag|A2- AA/B/|
c/B/c/A/ FA/B/|c/B/c/A/ FA|dd Ad|B2- BB/c/|
d/e/d/B/ GB/c/|d/e/d/B/ GB/d/|gf/g/ ag|e2- ee|
aa/a/ ag|ff/f/ ff/e/|dd/d/ ef|[B2g2]- [Bg]g||
|:b2- bg/e/|d2- d(g|g)g ag|e2- ee|
[1 c'2- c'c'|f2- ff/e/|dd ed B2- Bd:|
[2 aa/a/ ag|ff/f/ ff/e/|[Ad][A/d/][A/d/] [Ae][Af]|[B2g2]- [B2g2]||

